X: 714
T: Tao nan
%%abc-version 2.0
%%abcx-abcm2ps-target-version 5.9.1 (29 Sep 2008)
%%abc-creator hum2abc beta
%%abcx-conversion-date 2013/10/02 07:52:30
%%abc-edited-by Helmut Schaffrath
%%humdrum-veritas 1203895349
%%humdrum-veritas-data 3037337665
%%continueall 1
%%barnumbers 0
L: 1/8
M: 2/4
K: F
F F/ E/ D C [I:setbarnb 1]| 
F GA2 | 
c c/ G/ A G | 
F E D C | 
D A G A | 
C> D F/ F3/ | 
G G/ F/ E D | 
C4 |]  



